public/svg/android.svg

<svg width="24" height="24" viewBox="0 0 24 24" fill="none" xmlns="http://www.w3.org/2000/svg">
<path d="M1.67354 19.1241C0.848308 19.1241 0 19.786 0 20.9426C0 22.0014 0.745846 22.7491 1.67354 22.7491C2.43969 22.7491 2.78123 22.2349 2.78123 22.2349V22.4592C2.78123 22.5644 2.88092 22.6826 3.00462 22.6826H3.55846V19.2026H2.78123V19.6457C2.78123 19.6457 2.43692 19.1241 1.67354 19.1241ZM1.812 19.8358C2.49138 19.8358 2.84769 20.4331 2.84769 20.9435C2.84769 21.5103 2.42492 22.0494 1.81385 22.0494C1.30246 22.0494 0.791077 21.6358 0.791077 20.9352C0.791077 20.3029 1.23138 19.8358 1.812 19.8358ZM4.63938 22.6826C4.60969 22.6835 4.58012 22.6783 4.5525 22.6673C4.52488 22.6564 4.49979 22.6399 4.47878 22.6189C4.45777 22.5979 4.44128 22.5728 4.43033 22.5452C4.41937 22.5176 4.41418 22.488 4.41508 22.4583V19.2035H5.19231V19.6337C5.36862 19.3688 5.71292 19.1232 6.24185 19.1232C7.10492 19.1232 7.56462 19.8118 7.56462 20.4552V22.6826H7.02462C6.96177 22.6824 6.90157 22.6573 6.85714 22.6128C6.8127 22.5684 6.78763 22.5082 6.78738 22.4454V20.6269C6.78738 20.2697 6.56862 19.8368 6.06277 19.8368C5.51815 19.8368 5.19231 20.3518 5.19231 20.8374V22.6835H4.63846L4.63938 22.6826ZM9.83169 19.1241C9.00646 19.1241 8.15815 19.786 8.15815 20.9426C8.15815 22.0014 8.904 22.7491 9.83169 22.7491C10.5978 22.7491 10.9394 22.2349 10.9394 22.2349V22.4583C10.9394 22.5644 11.0391 22.6826 11.1628 22.6826H11.7166V17.4644H10.9394V19.6457C10.9394 19.6457 10.5951 19.1251 9.83169 19.1251V19.1241ZM9.97015 19.8358C10.6495 19.8358 11.0058 20.4331 11.0058 20.9435C11.0058 21.5103 10.5831 22.0494 9.972 22.0494C9.46154 22.0494 8.94923 21.6358 8.94923 20.9352C8.94923 20.3029 9.38954 19.8358 9.97015 19.8358ZM12.7975 22.6826C12.7678 22.6835 12.7383 22.6783 12.7107 22.6673C12.683 22.6564 12.6579 22.6399 12.6369 22.6189C12.6159 22.5979 12.5994 22.5728 12.5885 22.5452C12.5775 22.5176 12.5723 22.488 12.5732 22.4583V19.2035H13.3505V19.7832C13.4215 19.5947 13.5502 19.4333 13.7183 19.3221C13.8863 19.2109 14.0851 19.1555 14.2865 19.1638C14.4295 19.1638 14.5634 19.1906 14.5634 19.1906V19.9937C14.5634 19.9937 14.3972 19.9291 14.1942 19.9291C13.6495 19.9291 13.3505 20.4441 13.3505 20.9297V22.6835H12.7966L12.7975 22.6826ZM19.2812 22.6826C19.2517 22.6834 19.2223 22.6781 19.1949 22.6671C19.1674 22.6562 19.1425 22.6398 19.1216 22.6189C19.1007 22.598 19.0843 22.573 19.0733 22.5456C19.0623 22.5181 19.0571 22.4888 19.0578 22.4592V19.2035H19.8351V22.6835H19.2812V22.6826ZM22.1151 19.1241C21.2898 19.1241 20.4415 19.786 20.4415 20.9426C20.4415 22.0014 21.1874 22.7491 22.1151 22.7491C22.8812 22.7491 23.2228 22.2349 23.2228 22.2349V22.4583C23.2228 22.5644 23.3225 22.6826 23.4462 22.6826H24V17.4644H23.2228V19.6457C23.2228 19.6457 22.8785 19.1251 22.1151 19.1251V19.1241ZM22.2535 19.8358C22.9329 19.8358 23.2892 20.4331 23.2892 20.9435C23.2892 21.5103 22.8665 22.0494 22.2554 22.0494C21.7449 22.0494 21.2326 21.6358 21.2326 20.9352C21.2326 20.3029 21.6729 19.8358 22.2535 19.8358ZM19.44 18.4531C19.5765 18.4531 19.7074 18.3988 19.8039 18.3023C19.9004 18.2058 19.9546 18.0749 19.9546 17.9384C19.9546 17.802 19.9004 17.6711 19.8039 17.5746C19.7074 17.478 19.5765 17.4238 19.44 17.4238C19.3035 17.4238 19.1726 17.478 19.0761 17.5746C18.9796 17.6711 18.9254 17.802 18.9254 17.9384C18.9254 18.0749 18.9796 18.2058 19.0761 18.3023C19.1726 18.3988 19.3035 18.4531 19.44 18.4531ZM16.6154 19.1232C15.7505 19.1232 14.8015 19.7684 14.8015 20.9371C14.8015 22.0014 15.6102 22.7491 16.6135 22.7491C17.8495 22.7491 18.4532 21.7549 18.4532 20.9435C18.4551 20.7025 18.4087 20.4635 18.3168 20.2406C18.2249 20.0178 18.0893 19.8156 17.918 19.6459C17.7468 19.4763 17.5433 19.3427 17.3196 19.2529C17.0958 19.1631 16.8564 19.119 16.6154 19.1232ZM16.6182 19.8497C17.2154 19.8497 17.6612 20.3306 17.6612 20.9389C17.6612 21.5574 17.1877 22.0346 16.62 22.0346C16.092 22.0346 15.5788 21.6054 15.5788 20.9491C15.5788 20.2826 16.0671 19.8497 16.6182 19.8497Z" fill="#D7DDE1"/>
<path d="M17.8577 5.85244L19.846 2.40567C19.8994 2.31317 19.914 2.2033 19.8867 2.10005C19.8594 1.9968 19.7923 1.90855 19.7001 1.85459C19.6546 1.82788 19.6042 1.81048 19.5519 1.8034C19.4995 1.79633 19.4463 1.79971 19.3953 1.81337C19.3443 1.82702 19.2965 1.85067 19.2547 1.88294C19.2129 1.91521 19.1779 1.95546 19.1518 2.00136L17.1367 5.49243C15.5253 4.7626 13.7753 4.38918 12.0063 4.39767C10.1444 4.39767 8.41367 4.78997 6.87583 5.49243L4.85983 2.00136C4.83344 1.95549 4.79825 1.91529 4.75628 1.88307C4.71431 1.85085 4.66639 1.82724 4.61526 1.8136C4.56414 1.79996 4.51082 1.79656 4.45838 1.80359C4.40593 1.81063 4.3554 1.82796 4.30967 1.85459C4.26368 1.88097 4.22337 1.9162 4.19107 1.95824C4.15877 2.00029 4.13511 2.04831 4.12146 2.09955C4.10782 2.15078 4.10445 2.20421 4.11157 2.25675C4.11868 2.30929 4.13613 2.3599 4.1629 2.40567L6.15213 5.85244C2.7229 7.71151 0.397672 11.1841 0.0136719 15.2494H23.998C23.614 11.1841 21.2906 7.71151 17.8577 5.85244ZM6.50013 11.8801C6.3645 11.8859 6.22909 11.8642 6.10207 11.8163C5.97504 11.7685 5.85902 11.6953 5.76099 11.6014C5.66296 11.5075 5.58495 11.3947 5.53166 11.2699C5.47836 11.145 5.45089 11.0107 5.45089 10.8749C5.45089 10.7391 5.47836 10.6048 5.53166 10.4799C5.58495 10.3551 5.66296 10.2423 5.76099 10.1484C5.85902 10.0544 5.97504 9.98134 6.10207 9.93344C6.22909 9.88555 6.3645 9.86385 6.50013 9.86967C6.76159 9.87759 7.00968 9.98702 7.19181 10.1748C7.37395 10.3625 7.47581 10.6138 7.47581 10.8754C7.47581 11.1369 7.37395 11.3882 7.19181 11.576C7.00968 11.7637 6.76159 11.8731 6.50013 11.8811V11.8801ZM17.5097 11.8801C17.374 11.8859 17.2386 11.8641 17.1116 11.8162C16.9846 11.7682 16.8686 11.6951 16.7707 11.6011C16.6727 11.5071 16.5947 11.3943 16.5415 11.2694C16.4882 11.1445 16.4608 11.0102 16.4609 10.8744C16.461 10.7387 16.4885 10.6043 16.5418 10.4795C16.5952 10.3546 16.6733 10.2419 16.7713 10.148C16.8694 10.0542 16.9854 9.9811 17.1125 9.93326C17.2395 9.88542 17.375 9.86379 17.5106 9.86967C17.772 9.87759 18.0201 9.98702 18.2023 10.1748C18.3844 10.3625 18.4863 10.6138 18.4863 10.8754C18.4863 11.1369 18.3844 11.3882 18.2023 11.576C18.0201 11.7637 17.772 11.8731 17.5106 11.8811L17.5097 11.8801Z" fill="#32DE84"/>
</svg>

<svg xmlns="http://www.w3.org/2000/svg" width="24" height="24" fill="none" xmlns:v="https://vecta.io/nano"><path d="M1.674 19.124c-.825 0-1.674.662-1.674 1.819 0 1.059.746 1.806 1.674 1.806.766 0 1.108-.514 1.108-.514v.224c0 .105.1.223.223.223h.554v-3.48h-.777v.443s-.344-.522-1.108-.522zm.138.712c.679 0 1.036.597 1.036 1.108 0 .567-.423 1.106-1.034 1.106-.511 0-1.023-.414-1.023-1.114 0-.632.44-1.099 1.021-1.099zm2.827 2.847c-.03.001-.059-.004-.087-.015s-.053-.027-.074-.048-.038-.046-.048-.074-.016-.057-.015-.087v-3.255h.777v.43c.176-.265.521-.511 1.05-.511.863 0 1.323.689 1.323 1.332v2.227h-.54c-.063 0-.123-.025-.167-.07s-.07-.105-.07-.167v-1.819c0-.357-.219-.79-.725-.79-.545 0-.87.515-.87 1.001v1.846h-.554l.001-.001zm5.192-3.559c-.825 0-1.674.662-1.674 1.819 0 1.059.746 1.806 1.674 1.806.766 0 1.108-.514 1.108-.514v.223c0 .106.1.224.223.224h.554v-5.218h-.777v2.181s-.344-.521-1.108-.521v-.001zm.138.712c.679 0 1.036.597 1.036 1.108 0 .567-.423 1.106-1.034 1.106-.51 0-1.023-.414-1.023-1.114 0-.632.44-1.099 1.021-1.099zm2.827 2.847c-.03.001-.059-.004-.087-.015s-.053-.027-.074-.048-.038-.046-.048-.074-.016-.057-.015-.087v-3.255h.777v.58a.96.96 0 0 1 .936-.619 1.6 1.6 0 0 1 .277.027v.803s-.166-.065-.369-.065c-.545 0-.844.515-.844 1.001v1.754h-.554l.001-.001zm6.484 0c-.029.001-.059-.005-.086-.015s-.052-.027-.073-.048a.22.22 0 0 1-.048-.073c-.011-.027-.016-.057-.015-.086v-3.256h.777v3.48h-.554v-.001zm2.834-3.559c-.825 0-1.674.662-1.674 1.819 0 1.059.746 1.806 1.674 1.806.766 0 1.108-.514 1.108-.514v.223c0 .106.1.224.223.224H24v-5.218h-.777v2.181s-.344-.521-1.108-.521v-.001zm.138.712c.679 0 1.036.597 1.036 1.108 0 .567-.423 1.106-1.034 1.106-.511 0-1.023-.414-1.023-1.114 0-.632.44-1.099 1.021-1.099zm-2.813-1.383c.136 0 .267-.054.364-.151s.151-.227.151-.364-.054-.267-.151-.364-.227-.151-.364-.151-.267.054-.364.151-.151.227-.151.364.054.267.151.364.227.151.364.151zm-2.825.67c-.865 0-1.814.645-1.814 1.814 0 1.064.809 1.812 1.812 1.812 1.236 0 1.84-.994 1.84-1.806.002-.241-.044-.48-.136-.703s-.227-.425-.399-.595-.375-.303-.598-.393-.463-.134-.704-.13zm.003.726c.597 0 1.043.481 1.043 1.089 0 .619-.474 1.096-1.041 1.096-.528 0-1.041-.429-1.041-1.085 0-.667.488-1.099 1.039-1.099z" fill="#d7dde1"/><path d="M17.858 5.852l1.988-3.447c.053-.093.068-.202.041-.306s-.094-.191-.187-.245a.4.4 0 0 0-.305-.041.4.4 0 0 0-.243.188l-2.015 3.491a12.29 12.29 0 0 0-5.13-1.095 12.29 12.29 0 0 0-5.13 1.095L4.86 2.001a.4.4 0 0 0-.245-.188.4.4 0 0 0-.306.041.4.4 0 0 0-.188.245.4.4 0 0 0 .041.306l1.989 3.447C2.723 7.712.398 11.184.014 15.249h23.984c-.384-4.065-2.707-7.538-6.14-9.397zM6.5 11.88c-.136.006-.271-.016-.398-.064s-.243-.121-.341-.215-.176-.207-.229-.332-.081-.259-.081-.395.027-.27.081-.395.131-.238.229-.332.214-.167.341-.215.262-.07.398-.064c.261.008.51.117.692.305s.284.439.284.701-.102.513-.284.701-.43.297-.692.305v-.001zm11.01 0c-.136.006-.271-.016-.398-.064s-.243-.121-.341-.215-.176-.207-.229-.332-.081-.259-.081-.395a1.01 1.01 0 0 1 .31-.726c.098-.094.214-.167.341-.215s.262-.069.398-.064c.261.008.509.117.692.305s.284.439.284.701-.102.513-.284.701-.43.297-.692.305l-.001-.001z" fill="#32de84"/></svg>
